Source Code/mun/assets/flags/NAM.svg

<svg viewBox="0 0 40.5 40.5" xmlns="http://www.w3.org/2000/svg"><path d="m39.89 15.28-17.59 11.72h-21.14s0-.05 0-.08a16.44 16.44 0 0 1 -.51-1.69l17.58-11.73h21.11a.3.3 0 0 1 0 .11c.23.55.4 1.11.55 1.67z" fill="#fff"/><path d="m39.34 13.5h-21.11l14.17-9.45c.47.36.92.73 1.35 1.12a20.08 20.08 0 0 1 5.59 8.33z" fill="#ed2939"/><path d="m32.4 4.05-14.17 9.45-17.61 11.73a20.46 20.46 0 0 1 -.62-5 20.25 20.25 0 0 1 32.4-16.18z" fill="#003580"/><path d="m40.5 20.25a20.25 20.25 0 0 1 -32.39 16.21l14.19-9.46 17.59-11.72a20.94 20.94 0 0 1 .61 4.97z" fill="#009543"/><path d="m22.3 27-14.19 9.46c-.47-.36-.93-.74-1.36-1.13a20.08 20.08 0 0 1 -5.59-8.33z" fill="#ed2939"/><path d="m39.89 15.28-17.59 11.72-14.19 9.46c-.47-.36-.93-.74-1.36-1.13a20.08 20.08 0 0 1 -5.59-8.33s0-.05 0-.08a16.44 16.44 0 0 1 -.51-1.69l17.58-11.73 14.17-9.45c.47.36.92.73 1.35 1.12a20.08 20.08 0 0 1 5.59 8.33.3.3 0 0 1 0 .11c.23.55.4 1.11.55 1.67z" fill="#fff"/><path d="m39.38 13.61-20.12 13.39-12.51 8.33a20.08 20.08 0 0 1 -5.59-8.33s0-.05 0-.08l20.1-13.42 12.49-8.33a20.08 20.08 0 0 1 5.59 8.33.3.3 0 0 1 .04.11z" fill="#d21034"/><g fill="#ffce00"><path d="m14.39 9.59a2.65 2.65 0 1 1 -2.64-2.59 2.65 2.65 0 0 1 2.64 2.59z"/><path d="m10.9 6.5a3.19 3.19 0 0 0 -1.4.81l-.4-2.31z"/><path d="m9.46 7.34a3.18 3.18 0 0 0 -.81 1.4l-1.49-1.74z"/><path d="m8.54 9.59a3.1 3.1 0 0 0 .1.81l-2.19-.81 2.19-.81a3.1 3.1 0 0 0 -.1.81z"/><path d="m9.46 11.85-2.3.39 1.49-1.8a3.2 3.2 0 0 0 .81 1.39z"/><path d="m10.9 12.69-1.8 1.49.39-2.3a3.29 3.29 0 0 0 1.4.81z"/><path d="m12.56 12.7-.81 2.18-.81-2.18a3.33 3.33 0 0 0 1.62 0z"/><path d="m12.56 6.48-.81-2.18-.81 2.18a3.33 3.33 0 0 1 1.62 0z"/><path d="m14.39 14.18-1.79-1.49a3.18 3.18 0 0 0 1.4-.81z"/><path d="m16.33 12.24-2.33-.39a3.1 3.1 0 0 0 .81-1.39z"/><path d="m14.86 10.4a3.33 3.33 0 0 0 0-1.62l2.14.81z"/><path d="m16.33 7-1.49 1.74a3.08 3.08 0 0 0 -.84-1.4z"/><path d="m14.39 5-.39 2.31a3.08 3.08 0 0 0 -1.4-.81z"/></g></svg>

<svg xmlns="http://www.w3.org/2000/svg" viewBox="0 0 40.5 40.5"><defs><style>.cls-1{fill:#fff;}.cls-2{fill:#ed2939;}.cls-3{fill:#003580;}.cls-4{fill:#009543;}.cls-5{fill:#d21034;}.cls-6{fill:#ffce00;}</style></defs><g id="Ebene_2" data-name="Ebene 2"><g id="Ńëîé_1" data-name="Ńëîé 1"><path class="cls-1" d="M39.89,15.28,22.3,27H1.16s0-.05,0-.08a16.44,16.44,0,0,1-.51-1.69L18.23,13.5H39.34a.3.3,0,0,1,0,.11C39.57,14.16,39.74,14.72,39.89,15.28Z"/><path class="cls-2" d="M39.34,13.5H18.23L32.4,4.05c.47.36.92.73,1.35,1.12A20.08,20.08,0,0,1,39.34,13.5Z"/><path class="cls-3" d="M32.4,4.05,18.23,13.5.62,25.23a20.46,20.46,0,0,1-.62-5A20.25,20.25,0,0,1,32.4,4.05Z"/><path class="cls-4" d="M40.5,20.25A20.25,20.25,0,0,1,8.11,36.46L22.3,27,39.89,15.28A20.94,20.94,0,0,1,40.5,20.25Z"/><path class="cls-2" d="M22.3,27,8.11,36.46c-.47-.36-.93-.74-1.36-1.13A20.08,20.08,0,0,1,1.16,27Z"/><path class="cls-1" d="M39.89,15.28,22.3,27,8.11,36.46c-.47-.36-.93-.74-1.36-1.13A20.08,20.08,0,0,1,1.16,27s0-.05,0-.08a16.44,16.44,0,0,1-.51-1.69L18.23,13.5,32.4,4.05c.47.36.92.73,1.35,1.12a20.08,20.08,0,0,1,5.59,8.33.3.3,0,0,1,0,.11C39.57,14.16,39.74,14.72,39.89,15.28Z"/><path class="cls-5" d="M39.38,13.61,19.26,27,6.75,35.33A20.08,20.08,0,0,1,1.16,27s0-.05,0-.08L21.26,13.5,33.75,5.17a20.08,20.08,0,0,1,5.59,8.33A.3.3,0,0,1,39.38,13.61Z"/><path class="cls-6" d="M14.39,9.59A2.65,2.65,0,1,1,11.75,7,2.65,2.65,0,0,1,14.39,9.59Z"/><path class="cls-6" d="M10.9,6.5h0a3.19,3.19,0,0,0-1.4.81h0L9.1,5Z"/><path class="cls-6" d="M9.46,7.34h0a3.18,3.18,0,0,0-.81,1.4h0L7.16,7Z"/><path class="cls-6" d="M8.54,9.59a3.1,3.1,0,0,0,.1.81L6.45,9.59l2.19-.81A3.1,3.1,0,0,0,8.54,9.59Z"/><path class="cls-6" d="M9.46,11.85l-2.3.39,1.49-1.8h0a3.2,3.2,0,0,0,.81,1.39Z"/><path class="cls-6" d="M10.9,12.69,9.1,14.18l.39-2.3h0a3.29,3.29,0,0,0,1.4.81Z"/><path class="cls-6" d="M12.56,12.7l-.81,2.18-.81-2.18a3.33,3.33,0,0,0,1.62,0Z"/><path class="cls-6" d="M12.56,6.48,11.75,4.3l-.81,2.18a3.33,3.33,0,0,1,1.62,0Z"/><path class="cls-6" d="M14.39,14.18,12.6,12.69h0a3.18,3.18,0,0,0,1.4-.81h0Z"/><path class="cls-6" d="M16.33,12.24,14,11.85h0a3.1,3.1,0,0,0,.81-1.39h0Z"/><path class="cls-6" d="M14.86,10.4a3.33,3.33,0,0,0,0-1.62L17,9.59Z"/><path class="cls-6" d="M16.33,7,14.84,8.74h0A3.08,3.08,0,0,0,14,7.34h0Z"/><path class="cls-6" d="M14.39,5,14,7.31h0a3.08,3.08,0,0,0-1.4-.81h0Z"/></g></g></svg>
